monitor-arrow-down.svg

<svg fill="currentColor" viewBox="0 0 24 24"><path d="M21 16H3V4h18m0-2H3c-1.1 0-2 .9-2 2v12c0 1.1.9 2 2 2h7v2H8v2h8v-2h-2v-2h7c1.1 0 2-.9 2-2V4c0-1.1-.9-2-2-2m-5 8h-3V6h-2v4H8l4 4z"/></svg>

<svg  viewBox="0 0 24 24" fill="currentColor"><path  d="M21 16H3V4H21M21 2H3C1.9 2 1 2.9 1 4V16C1 17.1 1.9 18 3 18H10V20H8V22H16V20H14V18H21C22.1 18 23 17.1 23 16V4C23 2.9 22.1 2 21 2M16 10H13V6H11V10H8L12 14L16 10"/></svg>
